src/hbcore/resources/themes/icons/hbdefault/scalable/qtg_mono_drop_call.svg

<?xml version="1.0" encoding="UTF-8" standalone="no"?>
<!DOCTYPE svg PUBLIC "-//W3C//DTD SVG 1.1 Tiny//EN" "http://www.w3.org/Graphics/SVG/1.1/DTD/svg11-tiny.dtd">
<svg xmlns="http://www.w3.org/2000/svg" xmlns:xlink="http://www.w3.org/1999/xlink" baseProfile="tiny" height="30px" version="1.1" viewBox="0 0 30 30" width="30px" x="0px" y="0px">
<g fill-opacity="0.5" stroke-opacity="0.5">
<rect fill="none" height="30" width="30"/>
</g>
<path d="M7.129,14.84c-0.006-0.09,0-0.523,0-0.614,0.621-0.419,1.057-0.91,1.383-1.552,0.605-1.188,0.281-3.985,0.281-3.985,0-1.245-1.647-2.695-2.898-2.695h-0.795c-1.254,0-2.903,1.45-2.903,2.689,0,0-0.287,2.783,0.279,3.981,0.311,0.654,0.76,1.139,1.395,1.556,0.002,0.085,0.007,0.529,0.002,0.614-0.078,1.22-3.673,3.39-3.873,3.66v3.5h11.5v-3.5c-0.2-0.26-4.295-2.44-4.371-3.66z"/>
<path d="M11.02,12.17l2.82-2.818c-0.124-0.181-0.2-0.352-0.21-0.507-0.006-0.09,0-0.523,0-0.614,0.621-0.419,1.057-0.91,1.383-1.552,0.605-1.188,0.281-3.985,0.281-3.985,0-1.244-1.64-2.694-2.89-2.694h-0.8c-1.254,0-2.902,1.45-2.902,2.689,0,0-0.118,1.153-0.052,2.294,1.202,0.875,2.088,2.216,2.145,3.568,0.098,0.898,0.291,3.486-0.496,5.031-0.215,0.422-0.468,0.806-0.762,1.156,0.403,0.321,1.018,0.747,1.815,1.261h3.505l-3.82-3.83z"/>
<path d="M24.26,17.11c0.001-0.137,0.002-0.266,0.003-0.314,0.814-0.549,1.385-1.194,1.814-2.037,0.795-1.559,0.369-5.229,0.369-5.229,0-1.626-2.16-3.53-3.805-3.53h-1.04c-1.645,0-3.81,1.904-3.81,3.53,0,0-0.043,0.425-0.071,1.04l6.54,6.54z"/>
<path d="M30,22.85v-0.444c-0.079-0.104-0.616-0.434-1.328-0.884l1.33,1.32z"/>
<path d="M18.41,19.56c-1.64,1.318-3.989,2.618-4.161,2.844v4.6h11.6l-7.44-7.44z"/>
<rect height="20.98" transform="matrix(0.7066 -0.7076 0.7076 0.7066 -6.9576 21.0662)" width="1.867" x="20.99" y="8.434"/>
</svg>

<?xml version="1.0" encoding="UTF-8"?>
<!DOCTYPE svg PUBLIC "-//W3C//DTD SVG 1.1 Tiny//EN" "http://www.w3.org/Graphics/SVG/1.1/DTD/svg11-tiny.dtd">
<svg baseProfile="tiny" height="30px" version="1.1" viewBox="0 0 30 30" width="30px" x="0px" xmlns="http://www.w3.org/2000/svg" xmlns:xlink="http://www.w3.org/1999/xlink" y="0px">
<g fill-opacity="0.5" stroke-opacity="0.5">
<rect fill="none" height="30" width="30"/>
</g>
<path d="M7.129,14.841c-0.006-0.09,0-0.523,0-0.614c0.621-0.419,1.057-0.91,1.383-1.552c0.605-1.188,0.281-3.985,0.281-3.985  C8.793,7.45,7.146,6,5.895,6H5.1C3.846,6,2.197,7.45,2.197,8.689c0,0-0.287,2.783,0.279,3.981c0.311,0.654,0.76,1.139,1.395,1.556  c0.002,0.085,0.007,0.529,0.002,0.614C3.795,16.056,0.2,18.233,0,18.497V22h11.5v-3.5C11.299,18.235,7.205,16.056,7.129,14.841z"/>
<path d="M11.019,12.166l2.82-2.818c-0.124-0.181-0.2-0.352-0.21-0.507c-0.006-0.09,0-0.523,0-0.614  c0.621-0.419,1.057-0.91,1.383-1.552c0.605-1.188,0.281-3.985,0.281-3.985C15.293,1.45,13.646,0,12.395,0H11.6  c-1.254,0-2.902,1.45-2.902,2.689c0,0-0.118,1.153-0.052,2.294c1.202,0.875,2.088,2.216,2.145,3.568  c0.098,0.898,0.291,3.486-0.496,5.031c-0.215,0.422-0.468,0.806-0.762,1.156c0.403,0.321,1.018,0.747,1.815,1.261h3.505  L11.019,12.166z"/>
<path d="M24.261,17.111c0.001-0.137,0.002-0.266,0.003-0.314c0.814-0.549,1.385-1.194,1.814-2.037  c0.795-1.559,0.369-5.229,0.369-5.229c0-1.626-2.16-3.53-3.805-3.53H21.6c-1.645,0-3.81,1.904-3.81,3.53c0,0-0.043,0.425-0.071,1.04  L24.261,17.111z"/>
<path d="M30,22.851v-0.444c-0.079-0.104-0.616-0.434-1.328-0.884L30,22.851z"/>
<path d="M18.411,19.559c-1.64,1.318-3.989,2.618-4.161,2.844V27h11.603L18.411,19.559z"/>
<rect height="20.977" transform="matrix(0.7066 -0.7076 0.7076 0.7066 -6.9576 21.0662)" width="1.867" x="20.99" y="8.434"/>
</svg>
